icons/aspect_ratio.svg

<svg xmlns="http://www.w3.org/2000/svg" width="24" height="24" viewBox="0 0 24 24"><path d="M19 12h-2v3h-3v2h5v-5zM7 9h3V7H5v5h2V9zm14-6H3c-1.1 0-2 .9-2 2v14c0 1.1.9 2 2 2h18c1.1 0 2-.9 2-2V5c0-1.1-.9-2-2-2zm0 16.01H3V4.99h18v14.02z"/><path d="M0 0h24v24H0z" fill="none"/></svg>

<svg style="width:24px;height:24px" viewBox="0 0 24 24">
    <path fill="#000000" d="M19,12H17V15H14V17H19V12M7,9H10V7H5V12H7V9M21,3H3A2,2 0 0,0 1,5V19A2,2 0 0,0 3,21H21A2,2 0 0,0 23,19V5A2,2 0 0,0 21,3M21,19H3V5H21V19Z" />
</svg>
